X:1
T:Title
%%score { ( 1 3 ) | ( 2 4 ) }
L:1/8
M:9/8
K:G
V:1 treble nm="Grand Piano"
V:3 treble 
V:2 bass 
V:4 bass 
V:1
 z3 z3[Q:1/4=105] [DB]2 [CA] | [B,G]3 [B,D]3 [G,B,]2 [A,C] | [CE]3 [B,D]3 [DG]2 [DG] | %3
 A3- A2 D [DG]2 [DA] |[M:3/4] [DB]6 |[M:3/8] [DB]2 [CA] |[M:9/8] [B,G]3 [B,D]3 [DG]2 [DF] | %7
 [DF]3 [CE]3 [CA]2 [DB] | [Ec]3- [Ec]2 E F2 A |[M:3/4] [B,G]6 |[M:3/8] G2 G | %11
[M:9/8] A6[K:bass][K:treble] z3 | z2[K:bass] D, D,3[K:treble] [DGB]2 [DAc] | %13
 [DBd]2 [DBd] e2 d B2 G |[M:3/4] [DFA]6 |[M:3/8] d2 c |[M:9/8] [GB]2- [DG-B-] [DGB]2 A G2 D | %17
 [DF]3 E3 A2 B | [Ec]6 z3 |[M:3/4] [B,G]6 |] %20
V:2
 z3 z3 [G,,G,]2 [G,,D,] | [G,,D,]3 [G,,G,]3 [G,,D,]2 [G,,D,] | [G,,G,]3 [G,,G,]3 [B,,G,]2 [B,,G,] | %3
 [D,F,D]3- [D,F,D]2 [C,F,] [B,,G,]2 [A,,F,] |[M:3/4] [G,,G,]6 |[M:3/8] [G,,G,]2 [G,,D,] | %6
[M:9/8] [G,,D,]3 [G,,G,]3 [B,,G,]2 [B,,G,] | [C,G,]3 [C,G,]3 [C,E,]2 [B,,^G,] | %8
 [A,,A,]3- [A,,A,]2 [C,A,C] [D,A,C]2 [D,F,C] |[M:3/4] [G,,D,]6 |[M:3/8] B,2 B, | %11
[M:9/8] C2- [D,C-] [D,C]2 C B,2 [D,A,] | [G,,D,]2 G,, G,,3 G,2 G, | %13
 G,2 G,[K:treble] [G,CG]2 [G,B,G] [G,DG]2[K:bass] [E,^C] |[M:3/4] D,6 |[M:3/8][K:treble] F2 A | %16
[M:9/8] G,2 G, G,2[K:bass] [G,CD] [G,B,D]2 [B,,G,] | z3 C3 C2 D | %18
 [C,A,]2 C, C,2 [C,A,C] [D,A,C]2 [D,F,C] |[M:3/4] [G,,D,]6 |] %20
V:3
 x9 | x9 | x9 | x9 |[M:3/4] x6 |[M:3/8] x3 |[M:9/8] x9 | x9 | x9 |[M:3/4] x6 |[M:3/8] x3 | %11
[M:9/8] z2[K:bass] F, F,2[K:treble] A G2 F | [B,G]6[K:bass][K:treble] z3 | x9 |[M:3/4] x6 | %15
[M:3/8] x3 |[M:9/8] .D3 z3 z3 | x9 | z2 A, A,2 E F2 A |[M:3/4] x6 |] %20
V:4
 x9 | x9 | x9 | x9 |[M:3/4] x6 |[M:3/8] x3 |[M:9/8] x9 | x9 | x9 |[M:3/4] x6 |[M:3/8] x3 | %11
[M:9/8] .[D,F,]3 z3 z3 | x9 | x3[K:treble] x5[K:bass] x |[M:3/4] x6 |[M:3/8][K:treble] x3 | %16
[M:9/8] x5[K:bass] x4 | [C,G,]6 z3 | x9 |[M:3/4] x6 |] %20

